archdroid-icon-theme/Archdroid-BrownDark/mimetypes/scalable/text-x-gtkrc.svg

<svg fill="#3E2723" height="48" viewBox="0 0 48 48" width="48" xmlns="http://www.w3.org/2000/svg"><path d="m12 4c-2.21 0-3.980469 1.79-3.980469 4l-.019531 32c0 2.21 1.770469 4 3.980469 4h24.019531c2.21 0 4-1.79 4-4v-24l-12-12zm14 3 11 11h-11zm-10 17h16v4h-16zm0 8h16v4h-16z" fill="#729fcf"/><path d="m8.011719 20-.011719 20c0 2.21 1.770469 4 3.980469 4h12.019531v-8h-8v-4h8v-4h-8v-4h8v-4z" fill="#e40000"/><path d="m24 20v4h8v4h-8v4h8v4h-8v8h12c2.21 0 4-1.79 4-4v-20z" fill="#7fe719"/></svg>

<svg fill="#3E2723" height="48" version="1.1" viewBox="0 0 48 48" width="48" xmlns="http://www.w3.org/2000/svg"><path d="M12 4C9.79 4 8.019531 5.79 8.019531 8L8 40C8 42.21 9.770469 44 11.980469 44L36 44C38.21 44 40 42.21 40 40L40 16 28 4 12 4zM26 7L37 18 26 18 26 7zM16 24L32 24 32 28 16 28 16 24zM16 32L32 32 32 36 16 36 16 32z" fill="#729fcf"/><path d="M8.011719 20L8 40C8 42.21 9.770469 44 11.980469 44L24 44 24 36 16 36 16 32 24 32 24 28 16 28 16 24 24 24 24 20 8.011719 20z" fill="#e40000"/><path d="M24 20L24 24 32 24 32 28 24 28 24 32 32 32 32 36 24 36 24 44 36 44C38.21 44 40 42.21 40 40L40 20 24 20z" fill="#7fe719"/></svg>
